X:1
T:The Jolly Beggar
M:4/4
L:1/4
K:Bb
 B,| B,3/2 C/2 D E| F D C B,| B, B B3/2 c/2| B- A z F| B3/2 c/2 c B|\
 G A B3/2 G/2| F D C B,| D- C z B,| B,3/2 C/2 D E| F D C B,| B, B B c|\
 B- A z F| B3/2 d/2 c B| G A B G| F D C B,| D- C z B,| B,3/2 C/2 D E|\
 F- D C B,| B, B B c| B- G z F| B d c B| G A B3/2 G/2| F- D C B,| D- C z B,|\
 B,3/2 C/2 D3/2 E/2| F B, z||

